; generated by Slic3r 1.2.9 on 2016-06-18 at 16:43:55

; external perimeters extrusion width = 0.40mm
; perimeters extrusion width = 0.48mm
; infill extrusion width = 0.48mm
; solid infill extrusion width = 0.48mm
; top infill extrusion width = 0.48mm

M107
;<Start G-code>
M220 S100                             ; reset print speed modifier %
M190 S65   ; wait for bed temp
M106 S255                             ; fan speed
M104 S203       ; set extruder temp
G28                                   ; home all axes
                                      ; BEGIN optional (if X0 or Y0 is not on build surface)
G0 Z3                                 ; lift head
G0 X13 F3600                          ; move head to bed corner
G0 Z0 F3600                           ; lower head
G92 X Y Z E                           ; reset coordinates
G0 Z3                                 ; lift head
G0 X10 Y10 F3600                      ; move head to build surface
G0 Z0                                 ; lower head
                                      ; END optional (if X0 or Y0 is not on build surface)
M109 S203       ; wait for nozzle temp
G0 E15 F100                             ; unpark filament
G0 Z5 F3600                           ; lift head
G91                                   ; use relative coordinates
M107                                  ; disable fan
G0 X20 Y20 Z0 F3600                   ; wipe tip
;</Start G-gcode>
G21 ; set units to millimeters
G90 ; use absolute coordinates
M82 ; use absolute distances for extrusion
G92 E0
G1 Z0.300 F3000.000
G1 E-3.00000 F9960.00000
G92 E0
G1 Z0.500 F3000.000
G1 X44.103 Y44.103 F3000.000
G1 Z0.300 F3000.000
G1 E3.00000 F9960.00000
G1 X57.977 Y30.229 E4.31080 F1200.000
G1 X58.821 Y29.509 E4.38491
G1 X60.071 Y28.600 E4.48814
G1 X62.397 Y27.491 E4.66032
G1 X87.397 Y20.792 E6.38937
G1 X89.227 Y20.551 E6.51269
G1 X90.773 Y20.551 E6.61591
G1 X92.603 Y20.792 E6.73923
G1 X117.603 Y27.491 E8.46828 F1200.000
G1 X119.929 Y28.600 E8.64046
G1 X121.179 Y29.509 E8.74368
G1 X122.023 Y30.229 E8.81780
G1 X140.324 Y48.530 E10.54685
G1 X142.049 Y51.345 E10.76740
G1 X142.526 Y52.815 E10.87063
G1 X149.330 Y78.170 E12.62441
G1 X149.551 Y80.530 E12.78274
G1 X149.330 Y81.830 E12.87087
G1 X142.632 Y106.830 E14.59992
G1 X142.049 Y108.655 E14.72788
G1 X140.324 Y111.470 E14.94843
G1 X122.023 Y129.771 E16.67748
G1 X121.179 Y130.491 E16.75160
G1 X119.929 Y131.400 E16.85482
G1 X117.603 Y132.509 E17.02700
G1 X92.603 Y139.208 E18.75605
G1 X90.773 Y139.449 E18.87937
G1 X89.227 Y139.449 E18.98259
G1 X87.397 Y139.208 E19.10591
G1 X62.397 Y132.509 E20.83496
G1 X60.071 Y131.400 E21.00713
G1 X58.821 Y130.491 E21.11036
G1 X57.977 Y129.771 E21.18448
G1 X39.676 Y111.470 E22.91353
G1 X37.951 Y108.655 E23.13408
G1 X37.368 Y106.830 E23.26204
G1 X30.670 Y81.830 E24.99109
G1 X30.449 Y79.470 E25.14942
G1 X30.670 Y78.170 E25.23756
G1 X37.368 Y53.170 E26.96661
G1 X37.951 Y51.345 E27.09456
G1 X39.676 Y48.530 E27.31511
G1 X44.061 Y44.146 E27.72936
G1 X44.482 Y44.482 F3000.000
G1 X58.356 Y30.608 E29.04016 F1200.000
G1 X59.136 Y29.942 E29.10866
G1 X60.386 Y29.034 E29.21188
G1 X62.536 Y28.008 E29.37102
G1 X87.536 Y21.309 E31.10007
G1 X89.227 Y21.087 E31.21405
G1 X90.773 Y21.087 E31.31727
G1 X92.464 Y21.309 E31.43125
G1 X117.464 Y28.008 E33.16030 F1200.000
G1 X119.614 Y29.034 E33.31944
G1 X120.864 Y29.942 E33.42266
G1 X121.644 Y30.608 E33.49116
G1 X139.945 Y48.909 E35.22021
G1 X141.539 Y51.511 E35.42405
G1 X142.017 Y52.980 E35.52729
G1 X148.813 Y78.308 E37.27919
G1 X148.813 Y81.692 E37.50520
G1 X142.114 Y106.692 E39.23425
G1 X141.539 Y108.489 E39.36033
G1 X139.945 Y111.091 E39.56418
G1 X121.644 Y129.392 E41.29323
G1 X120.864 Y130.058 E41.36173
G1 X119.614 Y130.966 E41.46495
G1 X117.464 Y131.992 E41.62409
G1 X92.464 Y138.691 E43.35314
G1 X90.773 Y138.913 E43.46712
G1 X89.227 Y138.913 E43.57034
G1 X87.536 Y138.691 E43.68432
G1 X62.536 Y131.992 E45.41337
G1 X60.386 Y130.966 E45.57250
G1 X59.136 Y130.058 E45.67573
G1 X58.356 Y129.392 E45.74423
G1 X40.055 Y111.091 E47.47328
G1 X38.460 Y108.489 E47.67713
G1 X37.886 Y106.692 E47.80321
G1 X31.187 Y81.692 E49.53226
G1 X31.187 Y78.308 E49.75827
G1 X37.886 Y53.308 E51.48732
G1 X38.460 Y51.511 E51.61340
G1 X40.055 Y48.909 E51.81725
G1 X44.439 Y44.525 E52.23149
G1 F2400
G1 X44.951 Y44.013 E49.38149
G1 E49.23149 F9960.00000
G92 E0
G1 Z0.500 F3000.000
G1 X89.325 Y127.922 F3000.000
G1 Z0.300 F3000.000
G1 E3.00000 F9960.00000
G1 X90.675 Y127.922 E3.09020 F1200.000
G1 X91.767 Y128.716 E3.18039
G1 X92.185 Y130.000 E3.27059 F1200.000
G1 X91.767 Y131.284 E3.36079
G1 X90.675 Y132.078 E3.45098
G1 X89.325 Y132.078 E3.54118
G1 X88.233 Y131.284 E3.63137
G1 X87.815 Y130.000 E3.72157
G1 X88.233 Y128.716 E3.81177
G1 X89.276 Y127.958 E3.89795
G1 X89.593 Y128.220 F3000.000
G1 X89.439 Y128.273 F3000.000
G1 X90.561 Y128.273 E3.97291 F1200.000
G1 X91.352 Y128.848 E4.03825
G1 X91.469 Y128.933 E4.04786
G1 X91.815 Y130.000 E4.12282
G1 X91.469 Y131.067 E4.19778
G1 X90.561 Y131.727 E4.27273
G1 X89.439 Y131.727 E4.34769
G1 X88.531 Y131.067 E4.42264
G1 X88.185 Y130.000 E4.49760
G1 X88.531 Y128.933 E4.57256
G1 X89.390 Y128.309 E4.64350
G1 X89.563 Y127.893 F3000.000
G1 F2400
G1 X90.113 Y128.287 E1.79351
G1 E1.64350 F9960.00000
G92 E0
G1 Z0.500 F3000.000
G1 X92.023 Y128.530 F3000.000
G1 X100.070 Y125.916 F3000.000
G1 X104.452 Y125.916 F3000.000
G1 X112.500 Y123.301 F3000.000
G1 X112.815 Y123.301 F3000.000
G1 Z0.300 F3000.000
G1 E3.00000 F9960.00000
G1 X113.233 Y122.017 E3.09020 F1200.000
G1 X114.325 Y121.224 E3.18040
G1 X115.675 Y121.224 E3.27059
G1 X116.767 Y122.017 E3.36078
G1 X117.185 Y123.301 E3.45098 F1200.000
G1 X116.767 Y124.585 E3.54118
G1 X115.675 Y125.379 E3.63137
G1 X114.325 Y125.379 E3.72156
G1 X113.233 Y124.585 E3.81176
G1 X112.834 Y123.358 E3.89795
G1 X113.181 Y123.139 F3000.000
G1 X113.185 Y123.301 F3000.000
G1 X113.531 Y122.234 E3.97290 F1200.000
G1 X114.439 Y121.575 E4.04786
G1 X115.561 Y121.575 E4.12281 F1200.000
G1 X116.469 Y122.234 E4.19777
G1 X116.815 Y123.301 E4.27273
G1 X116.469 Y124.368 E4.34768
G1 X115.561 Y125.028 E4.42264
G1 X114.439 Y125.028 E4.49759
G1 X113.531 Y124.368 E4.57255
G1 X113.203 Y123.358 E4.64349
G1 X112.861 Y123.066 F3000.000
G1 F2400
G1 X113.406 Y122.664 E1.79349
G1 E1.64349 F9960.00000
G92 E0
G1 Z0.500 F3000.000
G1 X117.023 Y121.832 F3000.000
G1 X123.226 Y113.293 F3000.000
G1 X125.075 Y115.009 F3000.000
G1 X131.279 Y106.470 F3000.000
G1 X131.534 Y106.284 F3000.000
G1 Z0.300 F3000.000
G1 E3.00000 F9960.00000
G1 X131.117 Y105.000 E3.09020 F1200.000
G1 X131.534 Y103.716 E3.18039
G1 X132.626 Y102.922 E3.27059
G1 X133.976 Y102.922 E3.36078
G1 X135.069 Y103.716 E3.45098
G1 X135.486 Y105.000 E3.54118 F1200.000
G1 X135.069 Y106.284 E3.63138
G1 X133.976 Y107.078 E3.72157
G1 X132.626 Y107.078 E3.81177
G1 X131.582 Y106.319 E3.89795
G1 X131.734 Y105.938 F3000.000
G1 X131.832 Y106.067 F3000.000
G1 X131.486 Y105.000 E3.97291 F1200.000
G1 X131.832 Y103.933 E4.04786
G1 X132.740 Y103.273 E4.12282
G1 X133.862 Y103.273 E4.19778 F1200.000
G1 X134.770 Y103.933 E4.27273
G1 X135.117 Y105.000 E4.34769
G1 X134.770 Y106.067 E4.42265
G1 X133.862 Y106.727 E4.49760
G1 X132.740 Y106.727 E4.57256
G1 X131.881 Y106.102 E4.64351
G1 X131.432 Y106.067 F3000.000
G1 F2400
G1 X131.637 Y105.422 E1.79351
G1 E1.64351 F9960.00000
G92 E0
G1 Z0.500 F3000.000
G1 X134.074 Y102.622 F3000.000
G1 X134.074 Y92.196 F3000.000
G1 X132.650 Y91.431 F3000.000
G1 X139.227 Y82.378 F3000.000
G1 X139.325 Y82.078 F3000.000
G1 Z0.300 F3000.000
G1 E3.00000 F9960.00000
G1 X138.233 Y81.284 E3.09020 F1200.000
G1 X137.815 Y80.000 E3.18039
G1 X138.233 Y78.716 E3.27059
G1 X139.325 Y77.922 E3.36079
G1 X140.675 Y77.922 E3.45098
G1 X141.767 Y78.716 E3.54117
G1 X142.185 Y80.000 E3.63137 F1200.000
G1 X141.767 Y81.284 E3.72157
G1 X140.675 Y82.078 E3.81176
G1 X139.385 Y82.078 E3.89794
G1 X139.283 Y81.680 F3000.000
G1 X139.439 Y81.727 F3000.000
G1 X138.531 Y81.067 E3.97290 F1200.000
G1 X138.185 Y80.000 E4.04786
G1 X138.531 Y78.933 E4.12281
G1 X139.439 Y78.273 E4.19777
G1 X140.561 Y78.273 E4.27272 F1200.000
G1 X141.469 Y78.933 E4.34768
G1 X141.815 Y80.000 E4.42263
G1 X141.469 Y81.067 E4.49759
G1 X140.561 Y81.727 E4.57255
G1 X139.499 Y81.727 E4.64349
G1 X139.115 Y81.962 F3000.000
G1 F2400
G1 X138.902 Y81.319 E1.79349
G1 E1.64349 F9960.00000
G92 E0
G1 Z0.500 F3000.000
G1 X139.227 Y77.622 F3000.000
G1 X132.650 Y68.569 F3000.000
G1 X134.074 Y67.804 F3000.000
G1 X134.074 Y57.378 F3000.000
G1 X133.976 Y57.078 F3000.000
G1 Z0.300 F3000.000
G1 E3.00000 F9960.00000
G1 X132.626 Y57.078 E3.09020 F1200.000
G1 X131.534 Y56.284 E3.18039
G1 X131.117 Y55.000 E3.27059
G1 X131.534 Y53.716 E3.36079
G1 X132.626 Y52.922 E3.45098
G1 X133.976 Y52.922 E3.54118
G1 X135.069 Y53.716 E3.63137
G1 X135.486 Y55.000 E3.72157 F1200.000
G1 X135.069 Y56.284 E3.81177
G1 X134.025 Y57.042 E3.89795
G1 X133.709 Y56.780 F3000.000
G1 X133.862 Y56.727 F3000.000
G1 X132.740 Y56.727 E3.97291 F1200.000
G1 X131.832 Y56.067 E4.04787
G1 X131.486 Y55.000 E4.12282
G1 X131.832 Y53.933 E4.19778
G1 X132.740 Y53.273 E4.27273
G1 X133.862 Y53.273 E4.34769 F1200.000
G1 X134.770 Y53.933 E4.42265
G1 X135.117 Y55.000 E4.49761
G1 X134.770 Y56.067 E4.57256
G1 X133.911 Y56.691 E4.64351
G1 X133.739 Y57.107 F3000.000
G1 F2400
G1 X133.188 Y56.713 E1.79351
G1 E1.64351 F9960.00000
G92 E0
G1 Z0.500 F3000.000
G1 X131.279 Y53.530 F3000.000
G1 X125.075 Y44.991 F3000.000
G1 X123.226 Y46.707 F3000.000
G1 X117.023 Y38.168 F3000.000
G1 X116.767 Y37.983 F3000.000
G1 Z0.300 F3000.000
G1 E3.00000 F9960.00000
G1 X115.675 Y38.776 E3.09020 F1200.000
G1 X114.325 Y38.776 E3.18039
G1 X113.233 Y37.983 E3.27058
G1 X112.815 Y36.699 E3.36078
G1 X113.233 Y35.415 E3.45098
G1 X114.325 Y34.621 E3.54117
G1 X115.675 Y34.621 E3.63136
G1 X116.767 Y35.415 E3.72156
G1 X117.185 Y36.699 E3.81175 F1200.000
G1 X116.786 Y37.926 E3.89795
G1 X116.376 Y37.900 F3000.000
G1 X116.469 Y37.766 F3000.000
G1 X115.561 Y38.425 E3.97290 F1200.000
G1 X114.439 Y38.425 E4.04785
G1 X113.531 Y37.766 E4.12281
G1 X113.185 Y36.699 E4.19777
G1 X113.531 Y35.632 E4.27272
G1 X114.439 Y34.972 E4.34768
G1 X115.561 Y34.972 E4.42263 F1200.000
G1 X116.469 Y35.632 E4.49759
G1 X116.815 Y36.699 E4.57254
G1 X116.487 Y37.709 E4.64349
G1 X116.592 Y38.146 F3000.000
G1 F2400
G1 X115.915 Y38.151 E1.79349
G1 E1.64349 F9960.00000
G92 E0
G1 Z0.500 F3000.000
G1 X112.500 Y36.699 F3000.000
G1 X101.651 Y36.474 F3000.000
G1 X98.525 Y31.958 F3000.000
G1 X92.500 Y30.000 F3000.000
G1 X92.185 Y30.000 F3000.000
G1 Z0.300 F3000.000
G1 E3.00000 F9960.00000
G1 X91.767 Y31.284 E3.09020 F1200.000
G1 X90.675 Y32.078 E3.18039
G1 X89.325 Y32.078 E3.27059
G1 X88.233 Y31.284 E3.36078
G1 X87.815 Y30.000 E3.45098
G1 X88.233 Y28.716 E3.54118
G1 X89.325 Y27.922 E3.63137
G1 X90.675 Y27.922 E3.72157
G1 X91.767 Y28.716 E3.81176
G1 X92.166 Y29.943 E3.89795 F1200.000
G1 X91.819 Y30.163 F3000.000
G1 X91.815 Y30.000 F3000.000
G1 X91.469 Y31.067 E3.97291 F1200.000
G1 X90.561 Y31.727 E4.04786
G1 X89.439 Y31.727 E4.12282
G1 X88.531 Y31.067 E4.19777
G1 X88.185 Y30.000 E4.27273
G1 X88.531 Y28.933 E4.34769
G1 X89.439 Y28.273 E4.42264
G1 X90.561 Y28.273 E4.49760 F1200.000
G1 X91.469 Y28.933 E4.57256
G1 X91.797 Y29.943 E4.64350
G1 X92.139 Y30.235 F3000.000
G1 F2400
G1 X91.594 Y30.637 E1.79351
G1 E1.64350 F9960.00000
G92 E0
G1 Z0.500 F3000.000
G1 X87.500 Y30.000 F3000.000
G1 X79.930 Y34.084 F3000.000
G1 X75.547 Y34.084 F3000.000
G1 X67.500 Y36.699 F3000.000
G1 X67.185 Y36.699 F3000.000
G1 Z0.300 F3000.000
G1 E3.00000 F9960.00000
G1 X66.767 Y37.983 E3.09020 F1200.000
G1 X65.675 Y38.776 E3.18040
G1 X64.325 Y38.776 E3.27059
G1 X63.233 Y37.983 E3.36078
G1 X62.815 Y36.699 E3.45098
G1 X63.233 Y35.415 E3.54118
G1 X64.325 Y34.621 E3.63137
G1 X65.675 Y34.621 E3.72156
G1 X66.767 Y35.415 E3.81176
G1 X67.166 Y36.642 E3.89795 F1200.000
G1 X66.819 Y36.861 F3000.000
G1 X66.815 Y36.699 F3000.000
G1 X66.469 Y37.766 E3.97290 F1200.000
G1 X65.561 Y38.425 E4.04786
G1 X64.439 Y38.425 E4.12281
G1 X63.531 Y37.766 E4.19777
G1 X63.185 Y36.699 E4.27273
G1 X63.531 Y35.632 E4.34768
G1 X64.439 Y34.972 E4.42264
G1 X65.561 Y34.972 E4.49759 F1200.000
G1 X66.469 Y35.632 E4.57255
G1 X66.797 Y36.642 E4.64349
G1 X67.139 Y36.934 F3000.000
G1 F2400
G1 X66.594 Y37.336 E1.79349
G1 E1.64349 F9960.00000
G92 E0
G1 Z0.500 F3000.000
G1 X62.977 Y38.168 F3000.000
G1 X56.774 Y46.707 F3000.000
G1 X54.925 Y44.991 F3000.000
G1 X48.721 Y53.530 F3000.000
G1 X48.466 Y53.716 F3000.000
G1 Z0.300 F3000.000
G1 E3.00000 F9960.00000
G1 X48.883 Y55.000 E3.09020 F1200.000
G1 X48.466 Y56.284 E3.18039
G1 X47.374 Y57.078 E3.27059
G1 X46.024 Y57.078 E3.36079
G1 X44.931 Y56.284 E3.45098
G1 X44.514 Y55.000 E3.54118
G1 X44.931 Y53.716 E3.63138
G1 X46.024 Y52.922 E3.72157
G1 X47.374 Y52.922 E3.81177
G1 X48.418 Y53.681 E3.89795
G1 X48.266 Y54.062 F3000.000
G1 X48.168 Y53.933 F3000.000
G1 X48.514 Y55.000 E3.97291 F1200.000
G1 X48.168 Y56.067 E4.04786
G1 X47.260 Y56.727 E4.12282
G1 X46.138 Y56.727 E4.19778
G1 X45.230 Y56.067 E4.27273
G1 X44.883 Y55.000 E4.34769
G1 X45.230 Y53.933 E4.42265
G1 X46.138 Y53.273 E4.49760
G1 X47.260 Y53.273 E4.57256 F1200.000
G1 X48.119 Y53.898 E4.64351
G1 X48.568 Y53.933 F3000.000
G1 F2400
G1 X48.363 Y54.578 E1.79351
G1 E1.64351 F9960.00000
G92 E0
G1 Z0.500 F3000.000
G1 X45.926 Y57.378 F3000.000
G1 X45.926 Y67.804 F3000.000
G1 X47.350 Y68.569 F3000.000
G1 X40.773 Y77.622 F3000.000
G1 X40.675 Y77.922 F3000.000
G1 Z0.300 F3000.000
G1 E3.00000 F9960.00000
G1 X41.767 Y78.716 E3.09020 F1200.000
G1 X42.185 Y80.000 E3.18039 F1200.000
G1 X41.767 Y81.284 E3.27059
G1 X40.675 Y82.078 E3.36079
G1 X39.325 Y82.078 E3.45098
G1 X38.233 Y81.284 E3.54117
G1 X37.815 Y80.000 E3.63137
G1 X38.233 Y78.716 E3.72157
G1 X39.325 Y77.922 E3.81176
G1 X40.615 Y77.922 E3.89795
G1 X40.717 Y78.320 F3000.000
G1 X40.561 Y78.273 F3000.000
G1 X41.469 Y78.933 E3.97290 F1200.000
G1 X41.815 Y80.000 E4.04786
G1 X41.469 Y81.067 E4.12281
G1 X40.561 Y81.727 E4.19777
G1 X39.439 Y81.727 E4.27272
G1 X38.531 Y81.067 E4.34768
G1 X38.185 Y80.000 E4.42263
G1 X38.531 Y78.933 E4.49759
G1 X39.439 Y78.273 E4.57255
G1 X40.501 Y78.273 E4.64349 F1200.000
G1 X40.885 Y78.038 F3000.000
G1 F2400
G1 X41.098 Y78.681 E1.79349
G1 E1.64349 F9960.00000
G92 E0
G1 Z0.500 F3000.000
G1 X40.773 Y82.378 F3000.000
G1 X47.350 Y91.431 F3000.000
G1 X45.926 Y92.196 F3000.000
G1 X45.926 Y102.622 F3000.000
G1 X46.024 Y102.922 F3000.000
G1 Z0.300 F3000.000
G1 E3.00000 F9960.00000
G1 X47.374 Y102.922 E3.09020 F1200.000
G1 X48.466 Y103.716 E3.18039
G1 X48.883 Y105.000 E3.27059 F1200.000
G1 X48.466 Y106.284 E3.36078
G1 X47.374 Y107.078 E3.45098
G1 X46.024 Y107.078 E3.54118
G1 X44.931 Y106.284 E3.63137
G1 X44.514 Y105.000 E3.72157
G1 X44.931 Y103.716 E3.81177
G1 X45.975 Y102.958 E3.89795
G1 X46.291 Y103.220 F3000.000
G1 X46.138 Y103.273 F3000.000
G1 X47.260 Y103.273 E3.97291 F1200.000
G1 X48.168 Y103.933 E4.04787
G1 X48.514 Y105.000 E4.12282
G1 X48.168 Y106.067 E4.19778
G1 X47.260 Y106.727 E4.27273
G1 X46.138 Y106.727 E4.34769
G1 X45.230 Y106.067 E4.42265
G1 X44.883 Y105.000 E4.49761
G1 X45.230 Y103.933 E4.57256
G1 X46.089 Y103.309 E4.64351
G1 X46.261 Y102.893 F3000.000
G1 F2400
G1 X46.812 Y103.287 E1.79351
G1 E1.64351 F9960.00000
G92 E0
G1 Z0.500 F3000.000
G1 X48.721 Y106.470 F3000.000
G1 X54.925 Y115.009 F3000.000
G1 X56.774 Y113.293 F3000.000
G1 X62.977 Y121.832 F3000.000
G1 X63.233 Y122.017 F3000.000
G1 Z0.300 F3000.000
G1 E3.00000 F9960.00000
G1 X64.325 Y121.224 E3.09020 F1200.000
G1 X65.675 Y121.224 E3.18039
G1 X66.767 Y122.017 E3.27058
G1 X67.185 Y123.301 E3.36078 F1200.000
G1 X66.767 Y124.585 E3.45098
G1 X65.675 Y125.379 E3.54117
G1 X64.325 Y125.379 E3.63136
G1 X63.233 Y124.585 E3.72156
G1 X62.815 Y123.301 E3.81176
G1 X63.214 Y122.074 E3.89795
G1 X63.624 Y122.100 F3000.000
G1 X63.531 Y122.234 F3000.000
G1 X64.439 Y121.575 E3.97290 F1200.000
G1 X65.561 Y121.575 E4.04785 F1200.000
G1 X66.469 Y122.234 E4.12281
G1 X66.815 Y123.301 E4.19777
G1 X66.469 Y124.368 E4.27272
G1 X65.561 Y125.028 E4.34768
G1 X64.439 Y125.028 E4.42263
G1 X63.531 Y124.368 E4.49759
G1 X63.185 Y123.301 E4.57254
G1 X63.513 Y122.291 E4.64349
G1 X63.408 Y121.854 F3000.000
M106 S196.35
