; generated by Slic3r 1.2.9 on 2016-07-30 at 19:47:50

; external perimeters extrusion width = 0.40mm
; perimeters extrusion width = 0.48mm
; infill extrusion width = 0.48mm
; solid infill extrusion width = 0.48mm
; top infill extrusion width = 0.48mm

M107
;<Start G-code>
M220 S100                             ; reset print speed modifier %
M190 S60   ; wait for bed temp
M106 S255                             ; fan speed
M104 S210       ; set extruder temp
G28                                   ; home all axes
                                      ; BEGIN optional (if X0 or Y0 is not on build surface)
G0 Z3                                 ; lift head
G0 X13 F3600                          ; move head to bed corner
G0 Z0 F3600                           ; lower head
G92 X Y Z E                           ; reset coordinates
G0 Z3                                 ; lift head
G0 X10 Y10 F3600                      ; move head to build surface
G0 Z0                                 ; lower head
                                      ; END optional (if X0 or Y0 is not on build surface)
M109 S210       ; wait for nozzle temp
G0 E15 F100                             ; unpark filament
G0 Z5 F3600                           ; lift head
G91                                   ; use relative coordinates
M107                                  ; disable fan
G0 X20 Y20 Z0 F3600                   ; wipe tip
;</Start G-gcode>
G21 ; set units to millimeters
G90 ; use absolute coordinates
M82 ; use absolute distances for extrusion
G92 E0
G1 E-3.00000 F9960.00000
G92 E0
G1 Z0.200 F3000.000
G1 Z0.300 F3000.000
G1 Z0.500 F3000.000
G1 X87.870 Y88.000 F3000.000
G1 Z0.300 F3000.000
G1 E3.00000 F9960.00000
G1 X88.785 Y87.140 E3.08390 F1200.000
G1 X89.469 Y86.574 E3.14318
G1 X90.485 Y85.836 E3.22711
G1 X91.235 Y85.360 E3.28644
G1 X92.336 Y84.755 E3.37033
G1 X93.139 Y84.377 E3.42962
G1 X94.307 Y83.915 E3.51355
G1 X95.151 Y83.640 E3.57285
G1 X96.368 Y83.328 E3.65677
G1 X97.240 Y83.162 E3.71608
G1 X98.486 Y83.004 E3.79999
G1 X99.372 Y82.948 E3.85931
G1 X100.628 Y82.948 E3.94321
G1 X101.513 Y83.004 E4.00246
G1 X102.760 Y83.162 E4.08643 F1200.000
G1 X103.637 Y83.329 E4.14607
G1 X104.849 Y83.640 E4.22965
G1 X105.692 Y83.914 E4.28890
G1 X106.861 Y84.377 E4.37286
G1 X107.664 Y84.755 E4.43218
G1 X108.765 Y85.360 E4.51608
G1 X109.513 Y85.835 E4.57531
G1 X110.531 Y86.574 E4.65931
G1 X111.215 Y87.140 E4.71862
G1 X112.130 Y88.000 E4.80252
G1 X112.738 Y88.647 E4.86185
G1 X113.539 Y89.615 E4.94575
G1 X114.061 Y90.333 E5.00506
G1 X114.730 Y91.388 E5.08854
G1 X115.161 Y92.172 E5.14829
G1 X115.696 Y93.308 E5.23218
G1 X116.023 Y94.134 E5.29150
G1 X116.411 Y95.328 E5.37540
G1 X116.632 Y96.188 E5.43472
G1 X116.867 Y97.423 E5.51872
G1 X116.978 Y98.303 E5.57794
G1 X117.057 Y99.550 E5.66142
G1 X117.057 Y100.444 E5.72116
G1 X116.978 Y101.697 E5.80505
G1 X116.867 Y102.578 E5.86438
G1 X116.632 Y103.812 E5.94827
G1 X116.411 Y104.672 E6.00760
G1 X116.023 Y105.866 E6.09149
G1 X115.696 Y106.692 E6.15081
G1 X115.161 Y107.829 E6.23476
G1 X114.733 Y108.607 E6.29404
G1 X114.061 Y109.667 E6.37793
G1 X113.539 Y110.385 E6.43725
G1 X112.738 Y111.353 E6.52115
G1 X112.130 Y112.000 E6.58047
G1 X111.215 Y112.860 E6.66437
G1 X110.531 Y113.426 E6.72369
G1 X109.515 Y114.164 E6.80759
G1 X108.765 Y114.640 E6.86691
G1 X107.664 Y115.245 E6.95081
G1 X106.861 Y115.623 E7.01012
G1 X105.693 Y116.085 E7.09403
G1 X104.849 Y116.360 E7.15335
G1 X103.632 Y116.672 E7.23724
G1 X102.761 Y116.838 E7.29650
G1 X101.514 Y116.996 E7.38046
G1 X100.628 Y117.052 E7.43979
G1 X99.372 Y117.052 E7.52368
G1 X98.486 Y116.996 E7.58301
G1 X97.240 Y116.838 E7.66690
G1 X96.368 Y116.672 E7.72623
G1 X95.151 Y116.360 E7.81012
G1 X94.307 Y116.085 E7.86944
G1 X93.139 Y115.623 E7.95334
G1 X92.337 Y115.246 E8.01255
G1 X91.235 Y114.640 E8.09656
G1 X90.481 Y114.161 E8.15625
G1 X89.469 Y113.426 E8.23978
G1 X88.786 Y112.860 E8.29905
G1 X87.870 Y112.000 E8.38300
G1 X87.262 Y111.353 E8.44232
G1 X86.461 Y110.385 E8.52624
G1 X85.939 Y109.667 E8.58554
G1 X85.267 Y108.607 E8.66943
G1 X84.839 Y107.828 E8.72876
G1 X84.303 Y106.691 E8.81274
G1 X83.977 Y105.866 E8.87198
G1 X83.589 Y104.672 E8.95587
G1 X83.368 Y103.812 E9.01520
G1 X83.133 Y102.578 E9.09909
G1 X83.022 Y101.697 E9.15842
G1 X82.943 Y100.449 E9.24199
G1 X82.943 Y99.556 E9.30163
G1 X83.022 Y98.302 E9.38558
G1 X83.133 Y97.422 E9.44485
G1 X83.367 Y96.194 E9.52833
G1 X83.589 Y95.328 E9.58807
G1 X83.978 Y94.132 E9.67206
G1 X84.304 Y93.308 E9.73129
G1 X84.839 Y92.172 E9.81518
G1 X85.267 Y91.393 E9.87451
G1 X85.940 Y90.332 E9.95846
G1 X86.461 Y89.615 E10.01773
G1 X87.262 Y88.647 E10.10165
G1 X87.829 Y88.044 E10.15694
G1 X88.236 Y88.390 F3000.000
G1 X89.152 Y87.531 E10.24084 F1200.000
G1 X89.784 Y87.008 E10.29563
G1 X90.800 Y86.269 E10.37956
G1 X91.493 Y85.830 E10.43439
G1 X92.594 Y85.225 E10.51829
G1 X93.336 Y84.875 E10.57308
G1 X94.504 Y84.413 E10.65701
G1 X95.284 Y84.159 E10.71181
G1 X96.501 Y83.847 E10.79574
G1 X97.307 Y83.693 E10.85055
G1 X98.553 Y83.536 E10.93446
G1 X99.372 Y83.484 E10.98929
G1 X100.628 Y83.484 E11.07319
G1 X101.446 Y83.536 E11.12796
G1 X102.693 Y83.693 E11.21192 F1200.000
G1 X103.504 Y83.848 E11.26707
G1 X104.716 Y84.159 E11.35064
G1 X105.495 Y84.412 E11.40540
G1 X106.664 Y84.875 E11.48936
G1 X107.406 Y85.224 E11.54418
G1 X108.507 Y85.830 E11.62809
G1 X109.199 Y86.269 E11.68283
G1 X110.216 Y87.007 E11.76682
G1 X110.848 Y87.531 E11.82164
G1 X111.764 Y88.390 E11.90554
G1 X112.325 Y88.989 E11.96037
G1 X113.126 Y89.956 E12.04428
G1 X113.608 Y90.620 E12.09909
G1 X114.278 Y91.675 E12.18257
G1 X114.677 Y92.400 E12.23783
G1 X115.211 Y93.536 E12.32172
G1 X115.513 Y94.299 E12.37655
G1 X115.902 Y95.493 E12.46044
G1 X116.106 Y96.288 E12.51527
G1 X116.341 Y97.523 E12.59926
G1 X116.444 Y98.336 E12.65400
G1 X116.522 Y99.584 E12.73749
G1 X116.523 Y100.410 E12.79272
G1 X116.444 Y101.664 E12.87662
G1 X116.341 Y102.478 E12.93145
G1 X116.106 Y103.712 E13.01534
G1 X115.902 Y104.507 E13.07018
G1 X115.513 Y105.701 E13.15407
G1 X115.211 Y106.464 E13.20889
G1 X114.676 Y107.601 E13.29284
G1 X114.281 Y108.320 E13.34763
G1 X113.608 Y109.380 E13.43152
G1 X113.126 Y110.044 E13.48635
G1 X112.325 Y111.011 E13.57024
G1 X111.764 Y111.610 E13.62508
G1 X110.848 Y112.469 E13.70897
G1 X110.216 Y112.993 E13.76380
G1 X109.200 Y113.731 E13.84769
G1 X108.507 Y114.170 E13.90253
G1 X107.406 Y114.775 E13.98642
G1 X106.664 Y115.125 E14.04124
G1 X105.496 Y115.587 E14.12515
G1 X104.716 Y115.841 E14.17998
G1 X103.499 Y116.153 E14.26387
G1 X102.694 Y116.307 E14.31864
G1 X101.447 Y116.464 E14.40260
G1 X100.628 Y116.516 E14.45743
G1 X99.372 Y116.516 E14.54132
G1 X98.553 Y116.464 E14.59616
G1 X97.307 Y116.307 E14.68005
G1 X96.501 Y116.153 E14.73488
G1 X95.284 Y115.841 E14.81877
G1 X94.504 Y115.587 E14.87360
G1 X93.336 Y115.125 E14.95750
G1 X92.588 Y114.772 E15.01275
G1 X91.493 Y114.170 E15.09622
G1 X90.801 Y113.731 E15.15101
G1 X89.784 Y112.993 E15.23495
G1 X89.152 Y112.470 E15.28973
G1 X88.236 Y111.610 E15.37367
G1 X87.675 Y111.011 E15.42851
G1 X86.874 Y110.044 E15.51242
G1 X86.392 Y109.380 E15.56723
G1 X85.719 Y108.320 E15.65112
G1 X85.323 Y107.600 E15.70596
G1 X84.788 Y106.463 E15.78993
G1 X84.487 Y105.701 E15.84468
G1 X84.098 Y104.507 E15.92857
G1 X83.894 Y103.712 E15.98341
G1 X83.659 Y102.478 E16.06730
G1 X83.556 Y101.664 E16.12213
G1 X83.478 Y100.417 E16.20561
G1 X83.477 Y99.590 E16.26086
G1 X83.556 Y98.336 E16.34480
G1 X83.659 Y97.522 E16.39958
G1 X83.893 Y96.295 E16.48306
G1 X84.098 Y95.493 E16.53831
G1 X84.487 Y94.298 E16.62229
G1 X84.789 Y93.536 E16.67703
G1 X85.323 Y92.400 E16.76092
G1 X85.719 Y91.680 E16.81576
G1 X86.392 Y90.620 E16.89971
G1 X86.874 Y89.956 E16.95448
G1 X87.675 Y88.988 E17.03841
G1 X88.195 Y88.434 E17.08920
G1 E14.08920 F9960.00000
G92 E0
G1 Z0.500 F3000.000
G1 X107.075 Y106.635 F3000.000
G1 Z0.300 F3000.000
G1 E3.00000 F9960.00000
G1 X106.183 Y107.474 E3.08179 F1200.000
G1 X105.197 Y108.189 E3.16316
G1 X104.130 Y108.776 E3.24453
G1 X102.997 Y109.225 E3.32590
G1 X101.817 Y109.528 E3.40728
G1 X100.609 Y109.680 E3.48865
G1 X99.391 Y109.680 E3.57002
G1 X98.183 Y109.528 E3.65139
G1 X97.003 Y109.225 E3.73277
G1 X95.870 Y108.776 E3.81413
G1 X94.798 Y108.186 E3.89592
G1 X93.817 Y107.474 E3.97688
G1 X92.929 Y106.640 E4.05826
G1 X92.153 Y105.701 E4.13963
G1 X91.500 Y104.673 E4.22100
G1 X90.982 Y103.571 E4.30238
G1 X90.605 Y102.412 E4.38375
G1 X90.377 Y101.216 E4.46512
G1 X90.301 Y100.000 E4.54650
G1 X90.377 Y98.784 E4.62787
G1 X90.605 Y97.588 E4.70924
G1 X90.982 Y96.429 E4.79061
G1 X91.500 Y95.327 E4.87199
G1 X92.153 Y94.299 E4.95336
G1 X92.925 Y93.365 E5.03432
G1 X93.817 Y92.526 E5.11611
G1 X94.803 Y91.811 E5.19748
G1 X95.870 Y91.224 E5.27885
G1 X97.003 Y90.775 E5.36022
G1 X98.183 Y90.472 E5.44160
G1 X99.391 Y90.320 E5.52296
G1 X100.615 Y90.321 E5.60475
G1 X101.817 Y90.472 E5.68571 F1200.000
G1 X102.997 Y90.775 E5.76709
G1 X104.130 Y91.224 E5.84846
G1 X105.197 Y91.811 E5.92983
G1 X106.183 Y92.526 E6.01121
G1 X107.071 Y93.360 E6.09258
G1 X107.847 Y94.299 E6.17395
G1 X108.500 Y95.327 E6.25532
G1 X109.018 Y96.429 E6.33670
G1 X109.395 Y97.588 E6.41807
G1 X109.623 Y98.784 E6.49944
G1 X109.699 Y100.000 E6.58082
G1 X109.623 Y101.216 E6.66219
G1 X109.395 Y102.412 E6.74356
G1 X109.018 Y103.571 E6.82494
G1 X108.500 Y104.673 E6.90631
G1 X107.847 Y105.701 E6.98768
G1 X107.113 Y106.589 E7.06463
G1 X106.687 Y106.536 F3000.000
G1 X106.780 Y106.367 F3000.000
G1 X105.928 Y107.166 E7.14266 F1200.000
G1 X104.984 Y107.853 E7.22069
G1 X103.960 Y108.415 E7.29872
G1 X102.874 Y108.845 E7.37674
G1 X101.743 Y109.136 E7.45477
G1 X100.584 Y109.282 E7.53280
G1 X99.416 Y109.282 E7.61082
G1 X98.257 Y109.136 E7.68885
G1 X97.126 Y108.845 E7.76688
G1 X96.040 Y108.415 E7.84491
G1 X95.016 Y107.853 E7.92293
G1 X94.072 Y107.166 E8.00096
G1 X93.220 Y106.367 E8.07899
G1 X92.476 Y105.467 E8.15702
G1 X91.850 Y104.481 E8.23504
G1 X91.352 Y103.424 E8.31308
G1 X90.991 Y102.307 E8.39148
G1 X90.773 Y101.166 E8.46912
G1 X90.699 Y100.000 E8.54715
G1 X90.773 Y98.834 E8.62518
G1 X90.992 Y97.687 E8.70320
G1 X91.353 Y96.576 E8.78123
G1 X91.850 Y95.519 E8.85926
G1 X92.476 Y94.533 E8.93729
G1 X93.220 Y93.633 E9.01531
G1 X94.072 Y92.834 E9.09334
G1 X95.016 Y92.147 E9.17137
G1 X96.040 Y91.585 E9.24939
G1 X97.126 Y91.155 E9.32742
G1 X98.257 Y90.864 E9.40545
G1 X99.416 Y90.718 E9.48348
G1 X100.584 Y90.718 E9.56150 F1200.000
G1 X101.743 Y90.864 E9.63953
G1 X102.874 Y91.155 E9.71756
G1 X103.960 Y91.585 E9.79558
G1 X104.984 Y92.147 E9.87361
G1 X105.928 Y92.834 E9.95164
G1 X106.780 Y93.633 E10.02967
G1 X107.524 Y94.533 E10.10766
G1 X108.139 Y95.495 E10.18397
G1 X108.647 Y96.576 E10.26376
G1 X109.008 Y97.687 E10.34179
G1 X109.227 Y98.834 E10.41982
G1 X109.301 Y100.000 E10.49784
G1 X109.227 Y101.166 E10.57588
G1 X109.007 Y102.318 E10.65428
G1 X108.647 Y103.424 E10.73192
G1 X108.150 Y104.481 E10.80995
G1 X107.524 Y105.467 E10.88798
G1 X106.818 Y106.320 E10.96200
G1 X106.887 Y106.752 F3000.000
M106 S255
G1 E7.96200 F9960.00000
G92 E0
G1 Z0.500 F3000.000
G1 Z0.600 F3000.000
G1 X107.120 Y106.727 F3000.000
G1 E3.00000 F9960.00000
G1 X106.246 Y107.551 E3.05025 F834.258
G1 X105.251 Y108.274 E3.10176
G1 X104.172 Y108.867 E3.15327
G1 X103.028 Y109.320 E3.20479
G1 X101.836 Y109.626 E3.25630
G1 X100.615 Y109.780 E3.30782
G1 X99.385 Y109.780 E3.35933
G1 X98.164 Y109.626 E3.41085
G1 X96.972 Y109.320 E3.46236
G1 X95.828 Y108.867 E3.51388
G1 X94.749 Y108.274 E3.56539
G1 X93.753 Y107.551 E3.61691
G1 X92.856 Y106.708 E3.66842
G1 X92.072 Y105.760 E3.71994
G1 X91.413 Y104.721 E3.77145
G1 X90.889 Y103.607 E3.82297
G1 X90.514 Y102.455 E3.87370
G1 X90.278 Y101.228 E3.92600
G1 X90.200 Y100.000 E3.97751
G1 X90.278 Y98.772 E4.02902
G1 X90.508 Y97.563 E4.08054
G1 X90.889 Y96.393 E4.13205
G1 X91.413 Y95.279 E4.18357
G1 X92.072 Y94.240 E4.23508
G1 X92.845 Y93.306 E4.28582
G1 X93.754 Y92.449 E4.33811
G1 X94.765 Y91.717 E4.39040
G1 X95.828 Y91.133 E4.44113
G1 X96.972 Y90.680 E4.49265
G1 X98.164 Y90.374 E4.54416
G1 X99.384 Y90.220 E4.59567
G1 X100.634 Y90.222 E4.64797
G1 X101.836 Y90.374 E4.69870 F834.258
G1 X103.028 Y90.680 E4.75022
G1 X104.172 Y91.133 E4.80173
G1 X105.251 Y91.726 E4.85325
G1 X106.247 Y92.449 E4.90476
G1 X107.144 Y93.292 E4.95628
G1 X107.928 Y94.240 E5.00779
G1 X108.587 Y95.279 E5.05931
G1 X109.111 Y96.393 E5.11082
G1 X109.492 Y97.563 E5.16234
G1 X109.722 Y98.772 E5.21385
G1 X109.800 Y100.000 E5.26537
G1 X109.722 Y101.228 E5.31688
G1 X109.492 Y102.437 E5.36840
G1 X109.111 Y103.607 E5.41991
G1 X108.587 Y104.721 E5.47143
G1 X107.928 Y105.760 E5.52295
G1 X107.163 Y106.685 E5.57322
G1 X106.733 Y106.628 F3000.000
G1 X106.707 Y106.298 F3000.000
G1 X105.865 Y107.089 E5.62158 F834.258
G1 X104.930 Y107.768 E5.66995
G1 X103.917 Y108.325 E5.71831
G1 X102.843 Y108.750 E5.76668
G1 X101.724 Y109.037 E5.81504
G1 X100.578 Y109.182 E5.86341
G1 X99.422 Y109.182 E5.91177
G1 X98.276 Y109.037 E5.96014
G1 X97.157 Y108.750 E6.00850
G1 X96.083 Y108.325 E6.05687
G1 X95.085 Y107.776 E6.10452
G1 X94.136 Y107.089 E6.15358
G1 X93.293 Y106.298 E6.20195
G1 X92.562 Y105.417 E6.24988
G1 X91.938 Y104.432 E6.29869
G1 X91.446 Y103.387 E6.34706
G1 X91.085 Y102.271 E6.39613
G1 X90.872 Y101.153 E6.44378
G1 X90.800 Y100.000 E6.49215
G1 X90.872 Y98.847 E6.54051
G1 X91.089 Y97.712 E6.58888
G1 X91.446 Y96.613 E6.63724
G1 X91.938 Y95.568 E6.68561
G1 X92.557 Y94.592 E6.73397
G1 X93.293 Y93.702 E6.78234
G1 X94.135 Y92.911 E6.83070
G1 X95.070 Y92.232 E6.87907
G1 X96.083 Y91.675 E6.92743
G1 X97.157 Y91.250 E6.97580
G1 X98.276 Y90.963 E7.02416
G1 X99.422 Y90.818 E7.07253
G1 X100.578 Y90.818 E7.12089 F834.258
G1 X101.724 Y90.963 E7.16926
G1 X102.843 Y91.250 E7.21762
G1 X103.917 Y91.675 E7.26599
G1 X104.930 Y92.232 E7.31436
G1 X105.865 Y92.911 E7.36272
G1 X106.707 Y93.702 E7.41109
G1 X107.443 Y94.592 E7.45945
G1 X108.062 Y95.568 E7.50782
G1 X108.554 Y96.613 E7.55618
G1 X108.911 Y97.712 E7.60455
G1 X109.128 Y98.847 E7.65291
G1 X109.200 Y100.000 E7.70128
G1 X109.128 Y101.153 E7.74964
G1 X108.911 Y102.288 E7.79801
G1 X108.554 Y103.387 E7.84637
G1 X108.062 Y104.432 E7.89474
G1 X107.443 Y105.408 E7.94310
G1 X106.745 Y106.252 E7.98896
G1 X106.814 Y106.683 F3000.000
G1 X106.911 Y106.515 F3000.000
G1 X106.055 Y107.320 E8.05034 F600.000
G1 X105.096 Y108.017 E8.11228
G1 X104.051 Y108.593 E8.17461
G1 X102.936 Y109.035 E8.23730
G1 X101.780 Y109.332 E8.29963
G1 X100.597 Y109.481 E8.36195
G1 X99.397 Y109.480 E8.42464
G1 X98.220 Y109.332 E8.48661
G1 X97.071 Y109.037 E8.54857
G1 X95.962 Y108.598 E8.61090
G1 X94.910 Y108.020 E8.67359
G1 X93.940 Y107.315 E8.73625
G1 X93.075 Y106.503 E8.79824
G1 X92.325 Y105.598 E8.85964
G1 X91.679 Y104.583 E8.92253
G1 X91.167 Y103.497 E8.98522
G1 X90.805 Y102.380 E9.04658
G1 X90.575 Y101.190 E9.10989
G1 X90.500 Y99.993 E9.17255
G1 X90.575 Y98.809 E9.23452 F600.000
G1 X90.799 Y97.637 E9.29685
G1 X91.167 Y96.503 E9.35917
G1 X91.672 Y95.430 E9.42114
G1 X92.314 Y94.416 E9.48383
G1 X93.063 Y93.511 E9.54520
G1 X93.950 Y92.676 E9.60884
G1 X94.916 Y91.976 E9.67116
G1 X95.955 Y91.404 E9.73313
G1 X97.064 Y90.965 E9.79545
G1 X98.220 Y90.668 E9.85778
G1 X99.403 Y90.519 E9.92009
G1 X100.603 Y90.520 E9.98280
G1 X101.780 Y90.668 E10.04476
G1 X102.942 Y90.968 E10.10745
G1 X104.045 Y91.404 E10.16942
G1 X105.090 Y91.979 E10.23174
G1 X106.055 Y92.680 E10.29407
G1 X106.925 Y93.497 E10.35640
G1 X107.686 Y94.416 E10.41873
G1 X108.325 Y95.423 E10.48106
G1 X108.833 Y96.503 E10.54339
G1 X109.201 Y97.637 E10.60571
G1 X109.425 Y98.809 E10.66804
G1 X109.500 Y100.000 E10.73037
G1 X109.425 Y101.191 E10.79270
G1 X109.201 Y102.363 E10.85503
G1 X108.833 Y103.497 E10.91736
G1 X108.325 Y104.577 E10.97969
G1 X107.686 Y105.584 E11.04201
G1 X106.952 Y106.471 E11.10217
G1 E8.10217 F9960.00000
G92 E0
G1 Z0.800 F3000.000
G1 Z0.900 F3000.000
G1 X107.115 Y106.731 F3000.000
G1 E3.00000 F9960.00000
G1 X106.246 Y107.551 E3.05000 F834.253
G1 X105.251 Y108.274 E3.10151
G1 X104.172 Y108.867 E3.15302
G1 X103.028 Y109.320 E3.20454
G1 X101.836 Y109.626 E3.25605
G1 X100.615 Y109.780 E3.30757
G1 X99.385 Y109.780 E3.35908
G1 X98.164 Y109.626 E3.41060
G1 X96.972 Y109.320 E3.46211
G1 X95.828 Y108.867 E3.51363
G1 X94.749 Y108.274 E3.56514
