; generated by Slic3r 1.2.9 on 2016-06-18 at 18:15:07

; external perimeters extrusion width = 0.40mm
; perimeters extrusion width = 0.48mm
; infill extrusion width = 0.48mm
; solid infill extrusion width = 0.48mm
; top infill extrusion width = 0.48mm

M107
;<Start G-code>
M220 S100                             ; reset print speed modifier %
M190 S65   ; wait for bed temp
M106 S255                             ; fan speed
M104 S203       ; set extruder temp
G28                                   ; home all axes
                                      ; BEGIN optional (if X0 or Y0 is not on build surface)
G0 Z3                                 ; lift head
G0 X13 F3600                          ; move head to bed corner
G0 Z0 F3600                           ; lower head
G92 X Y Z E                           ; reset coordinates
G0 Z3                                 ; lift head
G0 X10 Y10 F3600                      ; move head to build surface
G0 Z0                                 ; lower head
                                      ; END optional (if X0 or Y0 is not on build surface)
M109 S203       ; wait for nozzle temp
G0 E15 F100                             ; unpark filament
G0 Z5 F3600                           ; lift head
G91                                   ; use relative coordinates
M107                                  ; disable fan
G0 X20 Y20 Z0 F3600                   ; wipe tip
;</Start G-gcode>
G21 ; set units to millimeters
G90 ; use absolute coordinates
M82 ; use absolute distances for extrusion
G92 E0
G1 Z0.300 F3000.000
G1 E-3.00000 F9960.00000
G92 E0
G1 Z0.500 F3000.000
G1 X77.262 Y68.647 F3000.000
G1 Z0.300 F3000.000
G1 E3.00000 F9960.00000
G1 X77.870 Y68.000 E3.05930 F843.597
G1 X78.785 Y67.140 E3.14319
G1 X79.469 Y66.574 E3.20248
G1 X80.485 Y65.836 E3.28641
G1 X81.235 Y65.360 E3.34574
G1 X82.336 Y64.755 E3.42963
G1 X83.145 Y64.375 E3.48937
G1 X84.307 Y63.915 E3.57285
G1 X85.151 Y63.640 E3.63214
G1 X86.368 Y63.328 E3.71607
G1 X87.240 Y63.162 E3.77537
G1 X88.486 Y63.004 E3.85928
G1 X89.372 Y62.948 E3.91861
G1 X90.628 Y62.948 E4.00250
G1 X91.513 Y63.004 E4.06176
G1 X92.760 Y63.162 E4.14573 F843.597
G1 X93.637 Y63.329 E4.20537
G1 X94.849 Y63.640 E4.28894
G1 X95.692 Y63.914 E4.34819
G1 X96.861 Y64.377 E4.43216
G1 X97.664 Y64.755 E4.49147
G1 X98.765 Y65.360 E4.57538
G1 X99.513 Y65.835 E4.63461
G1 X100.531 Y66.574 E4.71860
G1 X101.215 Y67.140 E4.77792
G1 X102.130 Y68.000 E4.86182
G1 X102.738 Y68.647 E4.92114
G1 X103.539 Y69.615 E5.00505
G1 X104.061 Y70.333 E5.06436
G1 X104.730 Y71.388 E5.14783
G1 X105.161 Y72.172 E5.20758
G1 X105.696 Y73.308 E5.29148
G1 X106.023 Y74.134 E5.35080
G1 X106.411 Y75.328 E5.43469
G1 X106.632 Y76.188 E5.49402
G1 X106.867 Y77.423 E5.57802
G1 X106.978 Y78.303 E5.63724
G1 X107.057 Y79.550 E5.72071
G1 X107.057 Y80.444 E5.78045
G1 X106.978 Y81.697 E5.86435
G1 X106.867 Y82.578 E5.92368
G1 X106.632 Y83.812 E6.00757
G1 X106.411 Y84.672 E6.06690
G1 X106.023 Y85.866 E6.15079
G1 X105.696 Y86.692 E6.21011
G1 X105.161 Y87.829 E6.29406
G1 X104.733 Y88.607 E6.35333
G1 X104.061 Y89.667 E6.43723
G1 X103.539 Y90.385 E6.49655
G1 X102.738 Y91.353 E6.58044
G1 X102.130 Y92.000 E6.63977
G1 X101.215 Y92.860 E6.72367
G1 X100.531 Y93.426 E6.78299
G1 X99.515 Y94.164 E6.86688
G1 X98.765 Y94.640 E6.92621
G1 X97.664 Y95.245 E7.01010
G1 X96.861 Y95.623 E7.06942
G1 X95.693 Y96.085 E7.15332
G1 X94.849 Y96.360 E7.21265
G1 X93.632 Y96.672 E7.29654
G1 X92.761 Y96.838 E7.35579
G1 X91.514 Y96.996 E7.43976
G1 X90.628 Y97.052 E7.49908
G1 X89.372 Y97.052 E7.58298
G1 X88.486 Y96.996 E7.64231
G1 X87.240 Y96.838 E7.72620
G1 X86.368 Y96.672 E7.78552
G1 X85.151 Y96.360 E7.86942
G1 X84.307 Y96.085 E7.92874
G1 X83.139 Y95.623 E8.01263
G1 X82.337 Y95.246 E8.07185
G1 X81.235 Y94.640 E8.15586
G1 X80.486 Y94.164 E8.21513
G1 X79.469 Y93.426 E8.29908
G1 X78.786 Y92.860 E8.35835
G1 X77.870 Y92.000 E8.44229
G1 X77.262 Y91.353 E8.50162
G1 X76.461 Y90.385 E8.58553
G1 X75.939 Y89.667 E8.64483
G1 X75.267 Y88.607 E8.72873
G1 X74.839 Y87.828 E8.78806
G1 X74.303 Y86.691 E8.87204
G1 X73.977 Y85.866 E8.93127
G1 X73.589 Y84.672 E9.01517
G1 X73.368 Y83.812 E9.07449
G1 X73.133 Y82.578 E9.15839
G1 X73.022 Y81.697 E9.21771
G1 X72.943 Y80.443 E9.30170
G1 X72.943 Y79.556 E9.36093
G1 X73.022 Y78.302 E9.44488
G1 X73.133 Y77.422 E9.50415
G1 X73.367 Y76.194 E9.58763
G1 X73.589 Y75.328 E9.64737
G1 X73.978 Y74.132 E9.73135
G1 X74.304 Y73.308 E9.79058
G1 X74.839 Y72.172 E9.87448
G1 X75.267 Y71.393 E9.93381
G1 X75.940 Y70.332 E10.01776
G1 X76.461 Y69.615 E10.07703
G1 X77.224 Y68.693 E10.15694
G1 X77.675 Y68.988 F3000.000
G1 X78.236 Y68.390 E10.21175 F843.597
G1 X79.152 Y67.531 E10.29564
G1 X79.784 Y67.008 E10.35044
G1 X80.800 Y66.269 E10.43437
G1 X81.493 Y65.830 E10.48920
G1 X82.594 Y65.225 E10.57309
G1 X83.342 Y64.873 E10.62831
G1 X84.504 Y64.413 E10.71182
G1 X85.284 Y64.159 E10.76662
G1 X86.501 Y63.847 E10.85054
G1 X87.307 Y63.693 E10.90536
G1 X88.553 Y63.536 E10.98927
G1 X89.372 Y63.484 E11.04410
G1 X90.628 Y63.484 E11.12799
G1 X91.446 Y63.536 E11.18276
G1 X92.693 Y63.693 E11.26672 F843.597
G1 X93.504 Y63.848 E11.32188
G1 X94.716 Y64.159 E11.40545
G1 X95.495 Y64.412 E11.46021
G1 X96.664 Y64.875 E11.54417
G1 X97.406 Y65.224 E11.59899
G1 X98.507 Y65.830 E11.68289
G1 X99.199 Y66.269 E11.73764
G1 X100.216 Y67.007 E11.82162
G1 X100.848 Y67.531 E11.87644
G1 X101.764 Y68.390 E11.96035
G1 X102.325 Y68.989 E12.01518
G1 X103.126 Y69.956 E12.09908
G1 X103.608 Y70.620 E12.15390
G1 X104.278 Y71.675 E12.23738
G1 X104.677 Y72.400 E12.29263
G1 X105.211 Y73.536 E12.37653
G1 X105.513 Y74.299 E12.43135
G1 X105.902 Y75.493 E12.51525
G1 X106.106 Y76.288 E12.57008
G1 X106.341 Y77.523 E12.65407
G1 X106.444 Y78.336 E12.70880
G1 X106.522 Y79.584 E12.79229
G1 X106.523 Y80.410 E12.84753
G1 X106.444 Y81.664 E12.93142
G1 X106.341 Y82.478 E12.98625
G1 X106.106 Y83.712 E13.07015
G1 X105.902 Y84.507 E13.12498
G1 X105.513 Y85.701 E13.20888
G1 X105.211 Y86.464 E13.26370
G1 X104.676 Y87.601 E13.34765
G1 X104.281 Y88.320 E13.40243
G1 X103.608 Y89.380 E13.48633
G1 X103.126 Y90.044 E13.54115
G1 X102.325 Y91.011 E13.62505
G1 X101.764 Y91.610 E13.67988
G1 X100.848 Y92.469 E13.76378
G1 X100.216 Y92.993 E13.81861
G1 X99.200 Y93.731 E13.90250
G1 X98.507 Y94.170 E13.95733
G1 X97.406 Y94.775 E14.04123
G1 X96.664 Y95.125 E14.09605
G1 X95.496 Y95.587 E14.17995
G1 X94.716 Y95.841 E14.23478
G1 X93.499 Y96.153 E14.31868
G1 X92.694 Y96.307 E14.37344
G1 X91.447 Y96.464 E14.45740
G1 X90.628 Y96.516 E14.51223
G1 X89.372 Y96.516 E14.59613
G1 X88.553 Y96.464 E14.65096
G1 X87.307 Y96.307 E14.73486
G1 X86.501 Y96.153 E14.78969
G1 X85.284 Y95.841 E14.87358
G1 X84.504 Y95.587 E14.92841
G1 X83.336 Y95.125 E15.01230
G1 X82.595 Y94.776 E15.06703
G1 X81.493 Y94.170 E15.15103
G1 X80.801 Y93.731 E15.20581
G1 X79.784 Y92.993 E15.28976
G1 X79.148 Y92.466 E15.34496
G1 X78.236 Y91.610 E15.42848
G1 X77.675 Y91.011 E15.48331
G1 X76.874 Y90.044 E15.56723
G1 X76.392 Y89.380 E15.62204
G1 X75.719 Y88.320 E15.70593
G1 X75.323 Y87.600 E15.76077
G1 X74.788 Y86.463 E15.84474
G1 X74.487 Y85.701 E15.89949
G1 X74.098 Y84.507 E15.98338
G1 X73.894 Y83.712 E16.03821
G1 X73.659 Y82.478 E16.12211
G1 X73.556 Y81.664 E16.17694
G1 X73.477 Y80.409 E16.26092
G1 X73.477 Y79.590 E16.31566
G1 X73.556 Y78.336 E16.39960
G1 X73.659 Y77.522 E16.45439
G1 X73.893 Y76.295 E16.53787
G1 X74.098 Y75.493 E16.59312
G1 X74.487 Y74.298 E16.67709
G1 X74.789 Y73.536 E16.73184
G1 X75.323 Y72.400 E16.81573
G1 X75.719 Y71.680 E16.87057
G1 X76.392 Y70.620 E16.95451
G1 X76.874 Y69.956 E17.00929
G1 X77.637 Y69.034 E17.08920
M106 S255
G1 Z0.600 F3000.000
G1 E14.08920 F9960.00000
G92 E0
G1 Z0.800 F3000.000
G1 X80.125 Y80.000 F3000.000
G1 Z0.600 F3000.000
G1 E3.00000 F9960.00000
G1 X80.203 Y78.762 E3.06479 F600.000
G1 X80.434 Y77.552 E3.12917
G1 X80.819 Y76.365 E3.19436
G1 X81.351 Y75.236 E3.25956
G1 X82.011 Y74.196 E3.32394
G1 X82.797 Y73.247 E3.38832
G1 X83.712 Y72.387 E3.45392
G1 X84.716 Y71.659 E3.51870
G1 X85.795 Y71.065 E3.58308
G1 X86.948 Y70.608 E3.64787
G1 X88.142 Y70.302 E3.71225
G1 X89.388 Y70.144 E3.77785
G1 X90.628 Y70.146 E3.84263
G1 X91.824 Y70.297 E3.90564
G1 X93.059 Y70.611 E3.97220
G1 X94.205 Y71.065 E4.03657
G1 X95.291 Y71.662 E4.10136
G1 X96.294 Y72.391 E4.16615
G1 X97.179 Y73.222 E4.22957
G1 X97.993 Y74.202 E4.29613
G1 X98.653 Y75.243 E4.36051
G1 X99.181 Y76.365 E4.42530
G1 X99.570 Y77.570 E4.49144
G1 X99.797 Y78.762 E4.55486
G1 X99.875 Y80.000 E4.61965
G1 X99.797 Y81.238 E4.68444
G1 X99.566 Y82.448 E4.74882
G1 X99.181 Y83.635 E4.81402
G1 X98.649 Y84.764 E4.87921
G1 X97.989 Y85.804 E4.94359
G1 X97.203 Y86.753 E5.00797
G1 X96.288 Y87.613 E5.07357
G1 X95.291 Y88.338 E5.13795
G1 X94.205 Y88.935 E5.20274
G1 X93.052 Y89.392 E5.26753
G1 X91.858 Y89.698 E5.33190
G1 X90.612 Y89.856 E5.39751
G1 X89.380 Y89.855 E5.46189
G1 X88.150 Y89.700 E5.52668
G1 X86.948 Y89.392 E5.59146
G1 X85.803 Y88.938 E5.65584
G1 X84.702 Y88.333 E5.72145
G1 X83.706 Y87.609 E5.78583
G1 X82.807 Y86.765 E5.85020
G1 X82.007 Y85.798 E5.91581
G1 X81.347 Y84.757 E5.98019
G1 X80.819 Y83.635 E6.04498
G1 X80.435 Y82.448 E6.11018
G1 X80.204 Y81.237 E6.17455
G1 X80.125 Y80.000 E6.23933
G1 Z0.900 F3000.000
G1 X80.125 Y80.000 F3000.000
G1 X80.203 Y78.762 E6.30411 F600.000
G1 X80.434 Y77.552 E6.36849
G1 X80.819 Y76.365 E6.43369
G1 X81.347 Y75.243 E6.49848
G1 X82.007 Y74.202 E6.56286
G1 X82.798 Y73.247 E6.62764
G1 X83.712 Y72.387 E6.69324
G1 X84.716 Y71.660 E6.75801
G1 X85.795 Y71.065 E6.82239
G1 X86.948 Y70.608 E6.88718
G1 X88.142 Y70.302 E6.95156
G1 X89.388 Y70.145 E7.01716
G1 X90.628 Y70.147 E7.08194
G1 X91.812 Y70.295 E7.14431
G1 X93.059 Y70.611 E7.21150
G1 X94.205 Y71.065 E7.27588
G1 X95.291 Y71.662 E7.34067
G1 X96.294 Y72.391 E7.40546
G1 X97.193 Y73.235 E7.46984
G1 X97.993 Y74.203 E7.53546
G1 X98.652 Y75.244 E7.59981
G1 X99.181 Y76.365 E7.66460
G1 X99.566 Y77.552 E7.72979
G1 X99.797 Y78.762 E7.79417
G1 X99.875 Y80.000 E7.85896
G1 X99.797 Y81.238 E7.92375
G1 X99.566 Y82.448 E7.98813
G1 X99.181 Y83.635 E8.05332
G1 X98.653 Y84.757 E8.11811
G1 X97.993 Y85.798 E8.18249
G1 X97.202 Y86.753 E8.24728
G1 X96.288 Y87.613 E8.31287
G1 X95.290 Y88.336 E8.37725
G1 X94.205 Y88.935 E8.44203
G1 X93.052 Y89.392 E8.50682
G1 X91.858 Y89.698 E8.57120
G1 X90.612 Y89.856 E8.63680
G1 X89.380 Y89.855 E8.70118
G1 X88.150 Y89.700 E8.76597
G1 X86.948 Y89.392 E8.83076
G1 X85.803 Y88.938 E8.89514
G1 X84.702 Y88.333 E8.96074
G1 X83.706 Y87.609 E9.02512
G1 X82.807 Y86.765 E9.08950
G1 X82.007 Y85.798 E9.15510
G1 X81.347 Y84.757 E9.21948
G1 X80.819 Y83.635 E9.28427
G1 X80.441 Y82.473 E9.34809
G1 X80.205 Y81.237 E9.41384
G1 X80.125 Y80.000 E9.47862
G1 Z1.200 F3000.000
G1 X80.125 Y80.000 F3000.000
G1 X80.203 Y78.762 E9.54340 F600.000
G1 X80.434 Y77.552 E9.60778
G1 X80.819 Y76.365 E9.67298
G1 X81.347 Y75.243 E9.73777
G1 X81.969 Y74.254 E9.79883
G1 X82.802 Y73.240 E9.86734
G1 X83.706 Y72.391 E9.93213
G1 X84.702 Y71.667 E9.99651
G1 X85.795 Y71.065 E10.06171
G1 X86.948 Y70.608 E10.12650
G1 X88.100 Y70.313 E10.18864
G1 X89.388 Y70.145 E10.25646
G1 X90.628 Y70.148 E10.32123
G1 X91.843 Y70.299 E10.38520
G1 X93.059 Y70.611 E10.45081
G1 X94.205 Y71.065 E10.51519
G1 X95.291 Y71.662 E10.57998
G1 X96.294 Y72.391 E10.64476
G1 X97.193 Y73.235 E10.70914
G1 X97.993 Y74.202 E10.77475
G1 X98.653 Y75.243 E10.83913
G1 X99.181 Y76.365 E10.90391
G1 X99.566 Y77.552 E10.96911
G1 X99.797 Y78.762 E11.03349
G1 X99.875 Y80.000 E11.09828
G1 X99.797 Y81.238 E11.16307
G1 X99.566 Y82.448 E11.22745
G1 X99.181 Y83.635 E11.29264
G1 X98.653 Y84.757 E11.35743
G1 X97.993 Y85.798 E11.42181
G1 X97.202 Y86.752 E11.48660
G1 X96.288 Y87.613 E11.55218
G1 X95.291 Y88.338 E11.61656
G1 X94.205 Y88.935 E11.68135
G1 X93.052 Y89.392 E11.74614
G1 X91.858 Y89.698 E11.81052
G1 X90.612 Y89.856 E11.87612
G1 X89.380 Y89.855 E11.94050
G1 X88.150 Y89.698 E12.00528
G1 X86.948 Y89.392 E12.07006
G1 X85.803 Y88.938 E12.13444
G1 X84.710 Y88.336 E12.19963
G1 X83.712 Y87.614 E12.26397
G1 X82.807 Y86.765 E12.32879
G1 X82.007 Y85.798 E12.39439
G1 X81.347 Y84.757 E12.45877
G1 X80.819 Y83.635 E12.52356
G1 X80.434 Y82.448 E12.58878
G1 X80.205 Y81.237 E12.65313
G1 X80.125 Y80.000 E12.71791
G1 Z1.500 F3000.000
G1 X80.203 Y78.762 E12.78270 F600.000
G1 X80.434 Y77.552 E12.84708
G1 X80.819 Y76.365 E12.91227
G1 X81.347 Y75.243 E12.97706
G1 X82.007 Y74.202 E13.04144
G1 X82.799 Y73.248 E13.10623
G1 X83.712 Y72.387 E13.17181
G1 X84.709 Y71.662 E13.23619
G1 X85.795 Y71.065 E13.30098
G1 X86.948 Y70.608 E13.36577
G1 X88.142 Y70.302 E13.43015
G1 X89.388 Y70.145 E13.49575
G1 X90.627 Y70.148 E13.56052
G1 X91.832 Y70.298 E13.62391
G1 X93.059 Y70.611 E13.69008
G1 X94.205 Y71.065 E13.75446
G1 X95.291 Y71.662 E13.81925
G1 X96.294 Y72.391 E13.88404
G1 X97.193 Y73.235 E13.94842
G1 X97.994 Y74.203 E14.01406
G1 X98.651 Y75.244 E14.07839
G1 X99.181 Y76.365 E14.14317
G1 X99.566 Y77.552 E14.20837
G1 X99.797 Y78.762 E14.27275
G1 X99.875 Y80.000 E14.33753
G1 X99.797 Y81.238 E14.40232
G1 X99.566 Y82.448 E14.46670
G1 X99.178 Y83.642 E14.53231
G1 X98.653 Y84.757 E14.59668
G1 X97.989 Y85.804 E14.66147
G1 X97.201 Y86.752 E14.72585
G1 X96.300 Y87.603 E14.79062
G1 X95.284 Y88.342 E14.85622
G1 X94.205 Y88.935 E14.92060
G1 X93.052 Y89.392 E14.98539
G1 X91.850 Y89.697 E15.05017
G1 X90.629 Y89.854 E15.11450
G1 X89.388 Y89.856 E15.17932
G1 X88.142 Y89.698 E15.24493
G1 X86.948 Y89.392 E15.30931
G1 X85.796 Y88.935 E15.37408
G1 X84.753 Y88.358 E15.43636
G1 X83.712 Y87.614 E15.50319
G1 X82.802 Y86.760 E15.56842
G1 X82.011 Y85.804 E15.63321
G1 X81.351 Y84.764 E15.69759
G1 X80.819 Y83.635 E15.76278
G1 X80.434 Y82.447 E15.82801
G1 X80.206 Y81.237 E15.89235
G1 X80.125 Y80.000 E15.95712
G1 Z1.800 F3000.000
G1 X80.125 Y79.992 F3000.000
G1 X80.203 Y78.762 E16.02150 F600.000
G1 X80.434 Y77.552 E16.08588
G1 X80.819 Y76.365 E16.15108
G1 X81.347 Y75.243 E16.21587
G1 X82.007 Y74.202 E16.28025
G1 X82.799 Y73.248 E16.34503
G1 X83.712 Y72.387 E16.41061
G1 X84.717 Y71.662 E16.47538
G1 X85.795 Y71.065 E16.53976
G1 X86.948 Y70.608 E16.60454
G1 X88.142 Y70.302 E16.66892
G1 X89.388 Y70.145 E16.73453
G1 X90.627 Y70.149 E16.79929
G1 X91.843 Y70.299 E16.86326
G1 X93.059 Y70.611 E16.92886
G1 X94.205 Y71.065 E16.99324
G1 X95.291 Y71.662 E17.05803
G1 X96.294 Y72.391 E17.12282
G1 X97.144 Y73.189 E17.18368
G1 X97.993 Y74.202 E17.25277
G1 X98.653 Y75.243 E17.31715
G1 X99.181 Y76.365 E17.38194
G1 X99.579 Y77.618 E17.45063
G1 X99.797 Y78.762 E17.51149
G1 X99.875 Y80.000 E17.57628
G1 X99.797 Y81.238 E17.64107
G1 X99.566 Y82.448 E17.70545
G1 X99.178 Y83.642 E17.77105
G1 X98.653 Y84.757 E17.83543
G1 X97.989 Y85.804 E17.90022
G1 X97.201 Y86.752 E17.96460
G1 X96.300 Y87.603 E18.02936
G1 X95.284 Y88.342 E18.09496
G1 X94.205 Y88.935 E18.15934
G1 X93.052 Y89.392 E18.22413
G1 X91.843 Y89.701 E18.28933
G1 X90.620 Y89.855 E18.35371
G1 X89.388 Y89.856 E18.41809
G1 X88.142 Y89.698 E18.48369
G1 X86.948 Y89.392 E18.54807
G1 X85.796 Y88.935 E18.61284
G1 X84.653 Y88.297 E18.68121
G1 X83.706 Y87.609 E18.74241
G1 X82.802 Y86.760 E18.80720
G1 X82.011 Y85.804 E18.87199
G1 X81.351 Y84.764 E18.93637
G1 X80.819 Y83.635 E19.00156
G1 X80.441 Y82.462 E19.06594
G1 X80.207 Y81.237 E19.13112
G1 X80.125 Y79.992 E19.19628
G1 Z2.100 F3000.000
G1 X80.125 Y79.992 F3000.000
G1 X80.203 Y78.762 E19.26066 F600.000
G1 X80.434 Y77.552 E19.32504
G1 X80.819 Y76.365 E19.39024
G1 X81.347 Y75.243 E19.45503
G1 X82.007 Y74.202 E19.51941
G1 X82.800 Y73.249 E19.58419
G1 X83.712 Y72.387 E19.64977
G1 X84.709 Y71.662 E19.71415
G1 X85.795 Y71.065 E19.77894
G1 X86.948 Y70.608 E19.84372
G1 X88.142 Y70.302 E19.90810
G1 X89.388 Y70.145 E19.97371
G1 X90.627 Y70.150 E20.03846
G1 X91.764 Y70.289 E20.09828
G1 X93.059 Y70.611 E20.16801
G1 X94.205 Y71.065 E20.23239
G1 X95.291 Y71.662 E20.29717
G1 X96.294 Y72.391 E20.36196
G1 X97.135 Y73.180 E20.42218
G1 X97.993 Y74.202 E20.49191
G1 X98.653 Y75.243 E20.55629
G1 X99.181 Y76.365 E20.62108
G1 X99.566 Y77.552 E20.68628
G1 X99.797 Y78.762 E20.75066
G1 X99.875 Y80.000 E20.81545
G1 X99.797 Y81.238 E20.88024
G1 X99.566 Y82.448 E20.94461
G1 X99.178 Y83.642 E21.01022
G1 X98.653 Y84.757 E21.07460
G1 X97.989 Y85.804 E21.13939
G1 X97.200 Y86.751 E21.20377
G1 X96.300 Y87.603 E21.26852
